images/wavemaker-20impact.svg

<svg fill="none" height="71" viewBox="0 0 90 71" width="90" xmlns="http://www.w3.org/2000/svg"><g fill="#fff"><path d="m55.1195 57.4154v-1.9514c0-1.2939-.2281-2.121-1.1166-2.4827l-2.664.3028.055.5566 2.0402-.1865c.5519.2215.6392.7486.6519 1.4103l-2.9076.485c-.4083.8327.0141 2.4785 1.4024 2.4785h.3591l1.1813-.5285.1506.5285h1.7572v-.4486zm-2.2388-.0617c-.8307 0-.9912-1.071-.78-1.4636l1.9867-.3518v1.4958c-.2239.1275-.6519.3196-1.2067.3196z"/><path d="m30.3808 57.4154v-1.9514c0-1.2939-.2281-2.121-1.1166-2.4827l-2.664.3028.055.5566 2.0402-.1865c.5519.2215.6392.7486.6519 1.4103l-2.9076.485c-.4083.8327.0141 2.4785 1.4024 2.4785h.3591l1.1813-.5285.1506.5285h1.7572v-.4486zm-2.2374-.0617c-.8307 0-.9912-1.071-.78-1.4636l1.9867-.3518v1.4958c-.2253.1275-.6533.3196-1.2067.3196z"/><path d="m43.1232 53.6808-.1267-.5495-1.7952.2453v.4024h.9405v3.6322l-.9405.1682v.45h2.9258v-.45l-.9405-.1682v-3.3126"/><path d="m46.5602 57.4112v-1.9556c0-1.3766-.5294-2.1897-1.5376-2.4813l-2.3866.757.1099.457 2.0092-.6294c.4998.2804.7603.9434.7603 2.0172v2.4533h1.9628v-.4542z"/><path d="m49.9633 57.4112v-1.9556c0-1.3766-.5294-2.1897-1.5375-2.4813l-2.3866.757.1098.457 2.0092-.6294c.4999.2804.7618.9434.7618 2.0172v2.4533h1.9627v-.4542z"/><path d="m40.4311 57.1392c-.245.1612-.8772.5215-1.5981.5243-.8166.0028-1.3587-.572-1.4615-1.6907l3.2497-.3532.1492-.2159c-.0352-1.493-.5744-2.4308-2.0022-2.4308-1.6347 0-2.5048.893-2.5048 2.6046 0 1.7117.9321 2.6691 2.5865 2.6046.88-.0336 1.5784-.4485 1.8445-.6308zm-1.6629-3.7345c.5928.0406.9899.764.9603 1.8098l-2.3753.2593c.0239-1.4046.4886-2.1336 1.415-2.0691z"/><path d="m66.3427 57.1392c-.245.1612-.8772.5215-1.5981.5243-.8167.0028-1.3587-.572-1.4615-1.6907l3.2496-.3532.1493-.2159c-.0352-1.493-.5745-2.4308-2.0022-2.4308-1.6347 0-2.5048.893-2.5048 2.6046 0 1.7117.9321 2.6691 2.5865 2.6046.88-.0336 1.5784-.4485 1.8445-.6308zm-1.6629-3.7345c.5928.0406.9898.764.9603 1.8098l-2.3753.2593c.0239-1.4046.4885-2.1336 1.415-2.0691z"/><path d="m33.8487 56.9514-1.2996-3.1808.9419-.1683v-.45h-2.6132v.45l.6279.1683 1.6826 4.2588h.7758l2.1374-4.8771h-.5801z"/><path d="m20.8049 56.9514-1.1841-3.1808.9419-.1683v-.45h-2.6147v.45l.6294.1683 1.5671 4.2588h.7758l1.7868-4.8771h-.5787z"/><path d="m23.9616 56.9514-1.2742-3.7948h-.3858l-.2028.6392-.145.3771 1.3475 3.8565h.7758l2.0486-4.8771h-.5801z"/><path d="m58.4705 57.428v-5.7238l-.1887-.8158-1.7966.2453v.4037h.942v5.8906l-.942.1696v.45h2.9258v-.45z"/><path d="m59.6898 55.1262 2.2641-1.6865-.0957-.2874h-.9856l-2.2543 2.1351 1.7812 2.7602h1.7769v-.4542l-.9195-.1654z"/><path d="m70.9271 52.9729-1.9219.6098-.1042-.4528-1.7966.2453v.4038h.9419v3.6322l-.9419.1696v.45h2.9258v-.45l-.9419-.1696v-3.3603l1.5713-.492c.1943.1093.3534.2762.4745.5033l.9166-.2916c-.2563-.3911-.6336-.6561-1.1236-.7977z"/><path d="m21.1048 62.0975v7.905h-1.8163v-7.905z"/><path d="m32.511 62.0975v7.905h-1.8163v-4.9233l-2.3049 3.0491h-.1591l-2.3035-3.0491v4.9233h-1.8163v-7.905h1.5319l2.6668 3.5341 2.6667-3.5341z"/><path d="m42.6684 64.8073c0 1.5813-1.2024 2.7098-2.7808 2.7098h-2.5541v2.484h-1.8163v-7.905h4.3704c1.5784.0014 2.7808 1.1299 2.7808 2.7112zm-1.8163.0112c0-.6547-.5111-1.106-1.1799-1.106h-2.3387v2.2135h2.3387c.6702-.0014 1.1799-.4528 1.1799-1.1075z"/><path d="m52.2922 69.9002v.1009h-1.9529l-.5675-1.378h-3.7115l-.5561 1.378h-1.9529v-.1009l3.4172-7.8027h1.8952zm-3.1554-2.8345-1.2137-2.9691-1.2264 2.9691z"/><path d="m53.71 66.0493c0-2.2696 1.5784-4.099 4.1199-4.099 1.691 0 2.9962.8243 3.5636 2.0327l-1.5206.8691c-.3182-.7345-1.056-1.2083-2.0205-1.2083-1.4756 0-2.3035 1.0612-2.3035 2.4055 0 1.3444.8617 2.4056 2.3387 2.4056.9757 0 1.7248-.4738 2.043-1.2084l1.5207.8579c-.5675 1.2084-1.884 2.0439-3.5862 2.0439-2.5429 0-4.1551-1.8406-4.1551-4.099z"/><path d="m70.2696 63.7685h-2.7245v6.2326h-1.8163v-6.2326h-2.7245v-1.671h7.2639v1.671z"/><path d="m44.8635 15.2647c-8.4142 7.8896-13.1282 2.913-21.5622 10.783-5.6644 5.2863-7.4751 15.5815-7.4751 15.5815-.2084-.3379-.597-1.2701-.2774-3.0364.3266-1.8 1.2799-8.5555 6.0713-13.6428 7.9046-8.3942 12.9509-3.6644 20.8808-12.0362.8434-.8902 1.539-1.7397 2.1219-2.5556.4407.5215.9321 1.0556 1.484 1.6051.3323.3309.6604.6407.9828.9294-.6209.7641-1.3517 1.5519-2.2261 2.372z"/><path d="m10.2744 13.0862c5.2702-4.98354 10.798-5.30877 14.2166-6.11623-.4604-.67569-.9996-1.37241-1.6389-2.09296-4.4338 1.52802-8.9127 2.00885-13.99275 7.37789-2.53301 2.6775-3.6932 5.5471-3.9917 6.7331-.20557.8145-.4928 1.6668-.06618 2.1126.00141.0014.00282.0042.00563.0056.84199-2.5023 2.25-4.978 5.4673-8.02zm-1.48264 11.1335c-.18726.764-.45056 1.8883-.02393 2.334-.00282-.0056.00141.0057 0 0 .85748-2.9018 2.03317-5.6382 5.81507-9.1834 4.7675-4.4691 8.4663-4.6892 12.2088-5.5738-.2238-.7177-.4871-1.4453-.8222-2.19106-4.1325 1.42426-7.9159 1.65556-12.903 6.91946-2.6865 2.8346-4.08888 6.9308-4.27474 7.6948zm-2.84839-15.44275c5.38563-5.16861 11.21903-5.3186 14.59263-6.20317-.8251-.72475-1.6178-1.32194-2.3838-1.819593-3.0681 1.007923-8.35653 1.591093-13.62811 7.188663-2.59777 2.75745-3.831184 5.29335-4.400019 7.83215-.1605131.7177-.2154254 1.3051.147841 1.692.001408.0014.002816.0014.004224.0028.843394-2.9144 2.230284-5.3929 5.667234-8.69285zm5.92353 22.75895c-.7815 3.3322.0366 4.3878.0366 4.3878.3294-2.3467 1.2024-8.5555 7.0935-14.1587 3.513-3.2929 6.3839-4.3415 9.1478-5.0186-.2168-.6883-.397-1.3682-.5702-2.0453-3.1779.9-6.3684 1.8589-10.2602 5.9663-4.0283 4.3794-4.8477 8.3157-5.4475 10.8685z"/><path d="m30.2259 33.5111c7.9299-8.3718 12.9508-3.6644 20.8807-12.0362 1.508-1.5925 2.5471-3.0519 3.2962-4.4299 1.1841.3575 2.3429.6183 3.5143.9295-.8729 1.8154-2.1838 3.7289-4.4478 5.8499-8.4143 7.8895-13.1466 2.8934-21.5623 10.7829-5.3983 5.3481-6.4022 10.6386-6.8542 12.6573 0 0-.5364-.9883-.3083-2.5542.1971-1.3583 1.0673-6.6699 5.4814-11.1993z"/><path d="m66.3793 36.6695c-5.618 5.2667-9.5942 4.7915-14.1223 6.241-.4267-.5566-.9096-1.1285-1.4616-1.7159 4.2339-1.5168 8.1271-1.4985 13.2198-6.8746 7.9299-8.3718 2.909-13.0792 10.8389-21.4525 3.9114-4.1298 7.116-5.07744 10.3108-5.98163 1.2968 1.37521 2.2232 2.6579 2.916 3.88173-2.9061.6771-5.8982 1.6528-9.6054 5.1279-8.4129 7.8896-3.682 12.8844-12.0962 20.774z"/><path d="m34.5287 37.7923c7.9299-8.3718 12.9509-3.6644 20.8808-12.0362s2.9089-13.0792 10.8388-21.45243c2.036-2.15044 3.8805-3.435928 5.632-4.30367 2.4077.702325 4.7225 1.04297 7.2667 2.2822-2.8047.6771-5.7094 1.70605-9.2759 5.04945-8.4156 7.88955-3.6833 12.88575-12.099 20.77535-8.4142 7.8896-13.1466 2.8934-21.5622 10.783-3.2103 3.2999-4.6971 6.1779-6.0178 9.7975 0 0-.4421-.8972-.069-2.5121.452-1.9542 1.4925-5.0845 4.4056-8.3831z"/><path d="m70.6821 40.9507c-6.2853 5.892-10.5164 4.5981-15.7612 6.8522-.2253-.635-.49-1.2799-.8167-1.9415 4.631-1.9374 8.7269-1.4664 14.2153-7.2602 7.9299-8.3718 2.9089-13.0792 10.8388-21.4524 3.4975-3.6925 6.4304-4.8406 9.2957-5.6887.7462 1.4733 1.1799 2.8682 1.546 4.2476-2.1895.7289-4.5141 1.9331-7.2203 4.4691-8.4142 7.8895-3.6833 12.8843-12.0976 20.7739z"/><path d="m84.5975 6.30131c-3.1695.70092-6.3684 1.51119-10.4235 5.31299-8.4157 7.8896-3.6834 12.8858-12.099 20.7753-5.5968 5.2472-9.5646 4.7958-14.0702 6.2242h-.0014c-.735-.5789-1.4461-1.0598-2.136-1.4649 4.4803-1.7663 8.503-1.4705 13.845-7.1101 7.9299-8.3719 2.9089-13.0793 10.8388-21.45248 3.6186-3.82003 6.6303-4.91627 9.5899-5.77561 1.3785.78924 2.8808 1.92334 4.4564 3.4906z"/><path d="m25.923 29.2299c7.9299-8.3718 12.9509-3.6644 20.8808-12.0363.9039-.9546 1.6375-1.8602 2.2429-2.7294 1.0701.7584 2.0881 1.315 3.0751 1.7496-.7547 1.0597-1.7107 2.163-2.9554 3.3307-8.4143 7.8896-13.1466 2.8934-21.5622 10.783-5.8489 5.5443-6.8711 13.6582-7.1781 15.0993 0 0-.6955-1.242-.4646-2.8948.1535-1.099 1.0729-8.1475 5.9615-13.3021z"/></g></svg>

<svg width="90" height="71" viewBox="0 0 90 71" fill="none" xmlns="http://www.w3.org/2000/svg">
<path d="M55.1195 57.4154V55.464C55.1195 54.1701 54.8914 53.343 54.0029 52.9813L51.3389 53.2841L51.3939 53.8407L53.4341 53.6542C53.986 53.8757 54.0733 54.4028 54.086 55.0645L51.1784 55.5495C50.7701 56.3822 51.1925 58.028 52.5808 58.028H52.9399L54.1212 57.4995L54.2718 58.028H56.029V57.5794L55.1195 57.4154ZM52.8807 57.3537C52.05 57.3537 51.8895 56.2827 52.1007 55.8901L54.0874 55.5383V57.0341C53.8635 57.1616 53.4355 57.3537 52.8807 57.3537Z" fill="white"/>
<path d="M30.3808 57.4154V55.464C30.3808 54.1701 30.1527 53.343 29.2642 52.9813L26.6002 53.2841L26.6552 53.8407L28.6954 53.6542C29.2473 53.8757 29.3346 54.4028 29.3473 55.0645L26.4397 55.5495C26.0314 56.3822 26.4538 58.028 27.8421 58.028H28.2012L29.3825 57.4995L29.5331 58.028H31.2903V57.5794L30.3808 57.4154ZM28.1434 57.3537C27.3127 57.3537 27.1522 56.2827 27.3634 55.8901L29.3501 55.5383V57.0341C29.1248 57.1616 28.6968 57.3537 28.1434 57.3537Z" fill="white"/>
<path d="M43.1232 53.6808L42.9965 53.1313L41.2013 53.3766V53.779H42.1418V57.4112L41.2013 57.5794V58.0294H44.1271V57.5794L43.1866 57.4112V54.0986" fill="white"/>
<path d="M46.5602 57.4112V55.4556C46.5602 54.079 46.0308 53.2659 45.0226 52.9743L42.636 53.7313L42.7459 54.1883L44.7551 53.5589C45.2549 53.8393 45.5154 54.5023 45.5154 55.5761V58.0294H47.4782V57.5752L46.5602 57.4112Z" fill="white"/>
<path d="M49.9633 57.4112V55.4556C49.9633 54.079 49.4339 53.2659 48.4258 52.9743L46.0392 53.7313L46.149 54.1883L48.1582 53.5589C48.6581 53.8393 48.92 54.5023 48.92 55.5761V58.0294H50.8827V57.5752L49.9633 57.4112Z" fill="white"/>
<path d="M40.4311 57.1392C40.1861 57.3004 39.5539 57.6607 38.833 57.6635C38.0164 57.6663 37.4743 57.0915 37.3715 55.9728L40.6212 55.6196L40.7704 55.4037C40.7352 53.9107 40.196 52.9729 38.7682 52.9729C37.1335 52.9729 36.2634 53.8659 36.2634 55.5775C36.2634 57.2892 37.1955 58.2466 38.8499 58.1821C39.7299 58.1485 40.4283 57.7336 40.6944 57.5513L40.4311 57.1392ZM38.7682 53.4047C39.361 53.4453 39.7581 54.1687 39.7285 55.2145L37.3532 55.4738C37.3771 54.0692 37.8418 53.3402 38.7682 53.4047Z" fill="white"/>
<path d="M66.3427 57.1392C66.0977 57.3004 65.4655 57.6607 64.7446 57.6635C63.9279 57.6663 63.3859 57.0915 63.2831 55.9728L66.5327 55.6196L66.682 55.4037C66.6468 53.9107 66.1075 52.9729 64.6798 52.9729C63.0451 52.9729 62.175 53.8659 62.175 55.5775C62.175 57.2892 63.1071 58.2466 64.7615 58.1821C65.6415 58.1485 66.3399 57.7336 66.606 57.5513L66.3427 57.1392ZM64.6798 53.4047C65.2726 53.4453 65.6696 54.1687 65.6401 55.2145L63.2648 55.4738C63.2887 54.0692 63.7533 53.3402 64.6798 53.4047Z" fill="white"/>
<path d="M33.8487 56.9514L32.5491 53.7706L33.491 53.6023V53.1523H30.8778V53.6023L31.5057 53.7706L33.1883 58.0294H33.9641L36.1015 53.1523H35.5214L33.8487 56.9514Z" fill="white"/>
<path d="M20.8049 56.9514L19.6208 53.7706L20.5627 53.6023V53.1523H17.948V53.6023L18.5774 53.7706L20.1445 58.0294H20.9203L22.7071 53.1523H22.1284L20.8049 56.9514Z" fill="white"/>
<path d="M23.9616 56.9514L22.6874 53.1566H22.3016L22.0988 53.7958L21.9538 54.1729L23.3013 58.0294H24.0771L26.1257 53.1523H25.5456L23.9616 56.9514Z" fill="white"/>
<path d="M58.4705 57.428V51.7042L58.2818 50.8884L56.4852 51.1337V51.5374H57.4272V57.428L56.4852 57.5976V58.0476H59.411V57.5976L58.4705 57.428Z" fill="white"/>
<path d="M59.6898 55.1262L61.9539 53.4397L61.8582 53.1523H60.8726L58.6183 55.2874L60.3995 58.0476H62.1764V57.5934L61.2569 57.428L59.6898 55.1262Z" fill="white"/>
<path d="M70.9271 52.9729L69.0052 53.5827L68.901 53.1299L67.1044 53.3752V53.779H68.0463V57.4112L67.1044 57.5808V58.0308H70.0302V57.5808L69.0883 57.4112V54.0509L70.6596 53.5589C70.8539 53.6682 71.013 53.8351 71.1341 54.0622L72.0507 53.7706C71.7944 53.3795 71.4171 53.1145 70.9271 52.9729Z" fill="white"/>
<path d="M21.1048 62.0975V70.0025H19.2885V62.0975H21.1048Z" fill="white"/>
<path d="M32.511 62.0975V70.0025H30.6947V65.0792L28.3898 68.1283H28.2307L25.9272 65.0792V70.0025H24.1109V62.0975H25.6428L28.3096 65.6316L30.9763 62.0975H32.511Z" fill="white"/>
<path d="M42.6684 64.8073C42.6684 66.3886 41.466 67.5171 39.8876 67.5171H37.3335V70.0011H35.5172V62.0961H39.8876C41.466 62.0975 42.6684 63.226 42.6684 64.8073ZM40.8521 64.8185C40.8521 64.1638 40.341 63.7125 39.6722 63.7125H37.3335V65.926H39.6722C40.3424 65.9246 40.8521 65.4732 40.8521 64.8185Z" fill="white"/>
<path d="M52.2922 69.9002V70.0011H50.3393L49.7718 68.6231H46.0603L45.5042 70.0011H43.5513V69.9002L46.9685 62.0975H48.8637L52.2922 69.9002ZM49.1368 67.0657L47.9231 64.0966L46.6967 67.0657H49.1368Z" fill="white"/>
<path d="M53.71 66.0493C53.71 63.7797 55.2884 61.9503 57.8299 61.9503C59.5209 61.9503 60.8261 62.7746 61.3935 63.983L59.8729 64.8521C59.5547 64.1176 58.8169 63.6438 57.8524 63.6438C56.3768 63.6438 55.5489 64.705 55.5489 66.0493C55.5489 67.3937 56.4106 68.4549 57.8876 68.4549C58.8633 68.4549 59.6124 67.9811 59.9306 67.2465L61.4513 68.1044C60.8838 69.3128 59.5673 70.1483 57.8651 70.1483C55.3222 70.1483 53.71 68.3077 53.71 66.0493Z" fill="white"/>
<path d="M70.2696 63.7685H67.5451V70.0011H65.7288V63.7685H63.0043V62.0975H70.2682V63.7685H70.2696Z" fill="white"/>
<path d="M44.8635 15.2647C36.4493 23.1543 31.7353 18.1777 23.3013 26.0477C17.6369 31.334 15.8262 41.6292 15.8262 41.6292C15.6178 41.2913 15.2292 40.3591 15.5488 38.5928C15.8754 36.7928 16.8287 30.0373 21.6201 24.95C29.5247 16.5558 34.571 21.2856 42.5009 12.9138C43.3443 12.0236 44.0399 11.1741 44.6228 10.3582C45.0635 10.8797 45.5549 11.4138 46.1068 11.9633C46.4391 12.2942 46.7672 12.604 47.0896 12.8927C46.4687 13.6568 45.7379 14.4446 44.8635 15.2647Z" fill="white"/>
<path d="M10.2744 13.0862C15.5446 8.10266 21.0724 7.77743 24.491 6.96997C24.0306 6.29428 23.4914 5.59756 22.8521 4.87701C18.4183 6.40503 13.9394 6.88586 8.85935 12.2549C6.32634 14.9324 5.16615 17.802 4.86765 18.988C4.66208 19.8025 4.37485 20.6548 4.80147 21.1006C4.80288 21.102 4.80429 21.1048 4.8071 21.1062C5.64909 18.6039 7.0571 16.1282 10.2744 13.0862ZM8.79176 24.2197C8.6045 24.9837 8.3412 26.108 8.76783 26.5537C8.76501 26.5481 8.76924 26.5594 8.76783 26.5537C9.62531 23.6519 10.801 20.9155 14.5829 17.3703C19.3504 12.9012 23.0492 12.6811 26.7917 11.7965C26.5679 11.0788 26.3046 10.3512 25.9695 9.60544C21.837 11.0297 18.0536 11.261 13.0665 16.5249C10.38 19.3595 8.97762 23.4557 8.79176 24.2197ZM5.94337 8.77695C11.329 3.60834 17.1624 3.45835 20.536 2.57378C19.7109 1.84903 18.9182 1.25184 18.1522 0.754187C15.0841 1.76211 9.79567 2.34528 4.52409 7.94285C1.92632 10.7003 0.692906 13.2362 0.124071 15.775C-0.0364421 16.4927 -0.0913544 17.0801 0.271912 17.467C0.27332 17.4684 0.274728 17.4684 0.276136 17.4698C1.11953 14.5554 2.50642 12.0769 5.94337 8.77695ZM11.8669 31.5359C11.0854 34.8681 11.9035 35.9237 11.9035 35.9237C12.2329 33.577 13.1059 27.3682 18.997 21.765C22.51 18.4721 25.3809 17.4235 28.1448 16.7464C27.928 16.0581 27.7478 15.3782 27.5746 14.7011C24.3967 15.6011 21.2062 16.56 17.3144 20.6674C13.2861 25.0468 12.4667 28.9831 11.8669 31.5359Z" fill="white"/>
<path d="M30.2259 33.5111C38.1558 25.1393 43.1767 29.8467 51.1066 21.4749C52.6146 19.8824 53.6537 18.423 54.4028 17.045C55.5869 17.4025 56.7457 17.6633 57.9171 17.9745C57.0442 19.7899 55.7333 21.7034 53.4693 23.8244C45.055 31.7139 40.3227 26.7178 31.907 34.6073C26.5087 39.9554 25.5048 45.2459 25.0528 47.2646C25.0528 47.2646 24.5164 46.2763 24.7445 44.7104C24.9416 43.3521 25.8118 38.0405 30.2259 33.5111Z" fill="white"/>
<path d="M66.3793 36.6695C60.7613 41.9362 56.7851 41.461 52.257 42.9105C51.8303 42.3539 51.3474 41.782 50.7954 41.1946C55.0293 39.6778 58.9225 39.6961 64.0152 34.32C71.9451 25.9482 66.9242 21.2408 74.8541 12.8675C78.7655 8.7377 81.9701 7.79006 85.1649 6.88587C86.4617 8.26108 87.3881 9.54377 88.0809 10.7676C85.1748 11.4447 82.1827 12.4204 78.4755 15.8955C70.0626 23.7851 74.7935 28.7799 66.3793 36.6695Z" fill="white"/>
<path d="M34.5287 37.7923C42.4586 29.4205 47.4796 34.1279 55.4095 25.7561C63.3394 17.3843 58.3184 12.6769 66.2483 4.30367C68.2843 2.15323 70.1288 0.867742 71.8803 0C74.288 0.702325 76.6028 1.04297 79.147 2.2822C76.3423 2.9593 73.4376 3.98825 69.8711 7.33165C61.4555 15.2212 66.1878 20.2174 57.7721 28.107C49.3579 35.9966 44.6255 31.0004 36.2099 38.89C32.9996 42.1899 31.5128 45.0679 30.1921 48.6875C30.1921 48.6875 29.75 47.7903 30.1231 46.1754C30.5751 44.2212 31.6156 41.0909 34.5287 37.7923Z" fill="white"/>
<path d="M70.6821 40.9507C64.3968 46.8427 60.1657 45.5488 54.9209 47.8029C54.6956 47.1679 54.4309 46.523 54.1042 45.8614C58.7352 43.924 62.8311 44.395 68.3195 38.6012C76.2494 30.2294 71.2284 25.522 79.1583 17.1488C82.6558 13.4563 85.5887 12.3082 88.454 11.4601C89.2002 12.9334 89.6339 14.3283 90 15.7077C87.8105 16.4366 85.4859 17.6408 82.7797 20.1768C74.3655 28.0663 79.0964 33.0611 70.6821 40.9507Z" fill="white"/>
<path d="M84.5975 6.30131C81.428 7.00223 78.2291 7.8125 74.174 11.6143C65.7583 19.5039 70.4906 24.5001 62.075 32.3896C56.4782 37.6368 52.5104 37.1854 48.0048 38.6138H48.0034C47.2684 38.0349 46.5573 37.554 45.8674 37.1489C50.3477 35.3826 54.3704 35.6784 59.7124 30.0388C67.6423 21.6669 62.6213 16.9595 70.5512 8.58632C74.1698 4.76629 77.1815 3.67005 80.1411 2.81071C81.5196 3.59995 83.0219 4.73405 84.5975 6.30131Z" fill="white"/>
<path d="M25.923 29.2299C33.8529 20.8581 38.8739 25.5655 46.8038 17.1936C47.7077 16.239 48.4413 15.3334 49.0467 14.4642C50.1168 15.2226 51.1348 15.7792 52.1218 16.2138C51.3671 17.2735 50.4111 18.3768 49.1664 19.5445C40.7521 27.4341 36.0198 22.4379 27.6042 30.3275C21.7553 35.8718 20.7331 43.9857 20.4261 45.4268C20.4261 45.4268 19.7306 44.1848 19.9615 42.532C20.115 41.433 21.0344 34.3845 25.923 29.2299Z" fill="white"/>
</svg>
